packages/ffe-icons/icons/filled/lg/phone_iphone.svg

<svg xmlns="http://www.w3.org/2000/svg" height="40" viewBox="0 -960 960 960" width="40"><path d="M282.565-60.002q-25.788 0-44.176-18.387-18.388-18.388-18.388-44.176v-714.87q0-25.788 18.388-44.176t44.176-18.388h394.87q25.788 0 44.176 18.388t18.388 44.176v714.87q0 25.788-18.388 44.176-18.388 18.387-44.176 18.387h-394.87Zm197.439-77.178q12.791 0 21.65-8.731 8.858-8.73 8.858-21.653 0-12.923-8.863-21.782t-21.653-8.859q-12.791 0-21.65 8.862-8.858 8.862-8.858 21.65 0 13.052 8.863 21.782 8.863 8.731 21.653 8.731ZM270.256-275.127h419.488V-754.36H270.256v479.233Z"/></svg>

<svg xmlns="http://www.w3.org/2000/svg" viewBox="0 -960 960 960" width="32" height="32"><path d="M282.57-60q-25.79 0-44.18-18.39T220-122.57v-714.86q0-25.79 18.39-44.18T282.57-900h394.86q25.79 0 44.18 18.39T740-837.43v714.86q0 25.79-18.39 44.18T677.43-60H282.57ZM480-137.18q12.79 0 21.65-8.73t8.86-21.65q0-12.93-8.86-21.79T480-198.21q-12.79 0-21.65 8.87-8.86 8.86-8.86 21.65 0 13.05 8.86 21.78t21.65 8.73ZM270.26-275.13h419.48v-479.23H270.26v479.23Z"/></svg>
